X:5
T:Deep River Blues
C: Doc Watson
N:Arr. for mandolin by Mike Stangeland
L:1/8
Q:1/4=200
M:4/4
K:E
z8 |: "E7"b=d eb zd e2 | "Edim"^ac ea zc e2 | "E7"be =g^g e"A7"B ce | "A7"=gf ce zB c=d | 
"E"[e4e4] Bc z=d | [e3e3]=g ^ge Bc | "B7"f=d cB dc BA | B2 =g^g e=d cB | "E7"=de bd eb Bc | 
"Edim"^ac ea z2 eg | "E7"b=g ^ge2"A7"B ce | "A7"=gf =de zB cd | "E"[e4e4] Bc3 | 
"B7"[e2e2] e=g2{=f}^f ze | z^A Be BA =A=G | "E"GE B,C E4 :| 


